assets/images/gitlab.svg

<?xml version="1.0" encoding="UTF-8" standalone="no"?><svg width="256px" height="236px" viewBox="0 0 256 236" version="1.1" xmlns="http://www.w3.org/2000/svg" xmlns:xlink="http://www.w3.org/1999/xlink" preserveAspectRatio="xMidYMid"><g><path d="M128.07485,236.074667 L128.07485,236.074667 L175.17885,91.1043048 L80.9708495,91.1043048 L128.07485,236.074667 L128.07485,236.074667 Z" fill="#E24329"/><path d="M128.07485,236.074423 L80.9708495,91.104061 L14.9557638,91.104061 L128.07485,236.074423 L128.07485,236.074423 Z" fill="#FC6D26"/><path d="M14.9558857,91.1044267 L14.9558857,91.1044267 L0.641828571,135.159589 -0.663771429,139.17757 0.766171429,143.57955 4.18438095,146.06275 L128.074971,236.074789 L14.9558857,91.1044267 L14.9558857,91.1044267 Z" fill="#FCA326"/><path d="M14.9558857,91.1045486 L80.9709714,91.1045486 L52.6000762,3.79026286 C51.1408762,-0.703146667 44.7847619,-0.701927619 43.3255619,3.79026286 L14.9558857,91.1045486 L14.9558857,91.1045486 Z" fill="#E24329"/><path d="M128.07485,236.074423 L175.17885,91.104061 L241.193935,91.104061 L128.07485,236.074423 L128.07485,236.074423 Z" fill="#FC6D26"/><path d="M241.193935,91.1044267 L241.193935,91.1044267 L255.507992,135.159589 C256.813592,139.17757 255.38365,143.57955 251.96544,146.06275 L128.07485,236.074789 L241.193935,91.1044267 L241.193935,91.1044267 Z" fill="#FCA326"/><path d="M241.193935,91.1045486 L175.17885,91.1045486 L203.549745,3.79026286 C205.008945,-0.703146667 211.365059,-0.701927619 212.824259,3.79026286 L241.193935,91.1045486 L241.193935,91.1045486 Z" fill="#E24329"/></g></svg>

<?xml version="1.0" encoding="UTF-8"?>
<svg preserveAspectRatio="xMidYMid" version="1.1" viewBox="0 0 256 236" xmlns="http://www.w3.org/2000/svg">
<path d="m128.07 236.07 47.104-144.97h-94.208l47.104 144.97z" fill="#E24329"/>
<path d="m128.07 236.07-47.104-144.97h-66.015l113.12 144.97z" fill="#FC6D26"/>
<path d="m14.956 91.104-14.314 44.055-1.3056 4.018 1.4299 4.402 3.4182 2.4832 123.89 90.012-113.12-144.97z" fill="#FCA326"/>
<path d="m14.956 91.105h66.015l-28.371-87.314c-1.4592-4.4934-7.8153-4.4922-9.2745 0l-28.37 87.314z" fill="#E24329"/>
<path d="m128.07 236.07 47.104-144.97h66.015l-113.12 144.97z" fill="#FC6D26"/>
<path d="m241.19 91.104 14.314 44.055c1.3056 4.018-0.12434 8.42-3.5426 10.903l-123.89 90.012 113.12-144.97z" fill="#FCA326"/>
<path d="m241.19 91.105h-66.015l28.371-87.314c1.4592-4.4934 7.8153-4.4922 9.2745 0l28.37 87.314z" fill="#E24329"/>
</svg>
